Origami/16x16/apps/gps.svg

<svg width="16" height="16" version="1" xmlns="http://www.w3.org/2000/svg">
 <path d="m6 0v1.2988281a7 7 0 0 0 -4.7050781 4.7011719h-1.2949219v4h1.2988281a7 7 0 0 0 4.7011719 4.705078v1.294922h4v-1.298828a7 7 0 0 0 4.705078 -4.701172h1.294922v-4h-1.298828a7 7 0 0 0 -4.701172 -4.7050781v-1.2949219h-4z" style="fill:#1e80ff"/>
 <rect transform="matrix(0,-1,-1,0,0,0)" x="-12" y="-12" width="8" height="8" rx="4" ry="4" style="fill:#ffffff"/>
</svg>

<svg xmlns="http://www.w3.org/2000/svg" width="16" height="16" version="1">
 <path style="fill:#1e80ff" d="M 6 0 L 6 1.2988281 A 7 7 0 0 0 1.2949219 6 L 0 6 L 0 10 L 1.2988281 10 A 7 7 0 0 0 6 14.705078 L 6 16 L 10 16 L 10 14.701172 A 7 7 0 0 0 14.705078 10 L 16 10 L 16 6 L 14.701172 6 A 7 7 0 0 0 10 1.2949219 L 10 0 L 6 0 z"/>
 <rect style="fill:#ffffff" width="8" height="8" x="-12" y="-12" rx="4" ry="4" transform="matrix(0,-1,-1,0,0,0)"/>
</svg>
